!!!COM: Scriabin, Alexander
!!!OTL@@FR: Étude en mi majeur
!!!OTL@@EN: Etude in E Major
!!!OPR@@FR: 12 Études
!!!OPR@@EN: 12 Etudes
!!!OPS: 8
!!!ONM: 5
!!!ODT: 1894
!!!AGN: Etude
!!!OMD: Brioso [half] = 72
**kern	**kern	**dynam
*part1	*part1	*
*staff2	*staff1	*staff1/2
*Ipiano	*Ipiano	*
*clefF4	*clefG2	*
*k[f#c#g#d#]	*k[f#c#g#d#]	*
*E:	*E:	*
*met(c)	*met(c)	*
*M4/4	*M4/4	*
*MM144	*MM144	*
=1-	=1-	=1-
*	*^	*
!	!	!	!LO:DY:t=%s semplice
4EE 4BB	4e/ 4g#/	8c#L<	mf
.	.	8BJ	.
*clefG2	*	*	*
4B 4e 4b	4ee/	8a^ (8aa^L<	.
.	.	8g# 8gg#J)	.
*clefF4	*	*	*
4BBB 4BB	4d#/ 4g#/	8BL<	.
.	.	8AJ	.
*clefG2	*	*	*
4A 4d# 4b	4dd#/	8g#^ (8gg#^L<	.
.	.	8f# 8ff#J)	.
*clefF4	*	*	*
*	*v	*v	*
=2	=2	=2
4EE 4BB	8G# 8e 8g#	.
.	8e 8ee	.
4BB 4G# 4e	8g# 8gg#L>	.
.	8d# 8dd#J	.
4AA# 4G# 4e	8g# 8gg#L	.
.	8c# 8cc#J	.
4r	8d# 8dd#L	.
.	8e 8eeJ	.
=3	=3	=3
*	*^	*
4BBB 4BB	8g# 8gg#L	4ryy	.
.	8B 8bJ	.	.
4G# 4e 4g#	8b 8ee 8bb	4ryy	.
.	8B 8b	.	.
4BB 4A 4d#	8g# 8gg#L>	4dd#\	.
.	8f# 8ff#J	.	.
4A 4d# 4f#	8b 8ff# 8bb	4ryy	.
.	8B 8b	.	.
!!LO:LB:g=original
=4	=4	=4	=4
4EE 4BB 4G#	4b	8f# 8ff#L	.
.	.	8e 8eeJ	.
8G# 8e 8g#	8b 8ee 8bb	4ryy	.
8A#	8r	.	.
8c#L	4r	4r	.
8BJ	.	.	.
8e	8r	4ryy	.
8r	8e	.	.
=5	=5	=5	=5
4GG# 4D#	8eL	4g# 4b	.
.	8d#J	.	.
*clefG2	*	*	*
4B 4g# 4b	8ee 8eeeL	4gg# 4bb	.
.	8dd# 8ddd#J	.	.
*clefF4	*	*	*
4DD# 4D#	8c#L	4f## 4cc#	.
.	8A#J	.	.
*clefG2	*	*	*
4A# 4f## 4cc#	8ee 8eeeL	4ff## 4ccc#	.
.	8dd# 8ddd#J	.	.
*clefF4	*	*	*
*	*v	*v	*
=6	=6	=6
4EE 4E	8B 8d# 8g# 8b	.
.	8b 8bb	.
4B 4d# 4g#	8dd# 8ddd#L	.
.	8a# 8aa#J	.
4EE# 4E#	8dd# 8ddd#L	.
.	8g# 8gg#J	.
4B 4d# 4g#	8a# 8aa#L	.
.	8b 8bbJ	.
!!LO:LB:g=original
=7	=7	=7
*	*^	*
4FF# 4F#	8dd# 8ddd#L	4ryy	.
.	8f# 8ff#J	.	.
*clefG2	*	*	*
4d# 4b 4dd#	8ff# 8bb 8fff#	4ryy	.
.	8F# 8f#	.	.
*clefF4	*	*	*
4FF# 4E 4A#	8d# 8dd#L>	4a#\	.
.	8c# 8cc#J	.	.
*clefG2	*	*	*
4e 4a# 4cc#	8ff# 8ccc# 8fff#	4ryy	.
.	8F# 8f#	.	.
*clefF4	*	*	*
=8	=8	=8	=8
4BBB 4FF# 4D#	8c# 8cc#L>	4f#\	.
.	8B 8bJ	.	.
*clefG2	*	*	*
8d# 8b 8dd#	4ryy	8ff# 8bb 8fff#	.
*clefF4	*	*	*
8E#	.	8r	.
8G#L	8ryy	4r	.
8F#J	8ryy	.	.
8B	8r	8r	.
8r	8ryy	8B\	.
=9	=9	=9	=9
4GGG# 4GG#	4dn/ 4f#/	8B\L	<
.	.	8F#J	.
*clefG2	*	*	*
4G# 4dn 4f# 4ddn	4ff#/	8cc#\ 8ccc#\L	.
.	.	8b 8bbJ	.
*clefF4	*	*	*
4CC# 4C#	4cc#/ 4ee#/	8a 8aaL<	.
.	.	8g# 8gg#J	.
4B 4e#	8d 8ddnL>	4g#\	.
.	8d 8ddJ	.	.
!!LO:LB:g=original
=10	=10	=10	=10
4A 4f#	8dn 8ddnL>	4a\	.
.	8c# 8cc#J	.	.
8DnL	4r	4r	.
8DJ	.	.	.
8DL	4r	4r	.
8C#J	.	.	.
8A	8r	4ryy	.
8r	8A\	.	.
=11	=11	=11	=11
4FFF# 4FF#	4cn/ 4e/	8AL<	.
.	.	8EJ	.
4A 4e	4ee/	8b 8bbL<	.
.	.	8a 8aaJ	.
4Cn	4ee/	8g# 8gg#L<	.
.	.	8f# 8ff#J	.
4F# 4e	4ee/	8g# 8gg#L<	>
.	.	8a 8aaJ	.
=12	=12	=12	=12
4BB 4A 4d#	8g# 8gg#L	4dd#	.
.	8f# 8ff#J	.	.
8c#X~L	4r	4r	p
8c#~J	.	.	.
8c#~L	4r	4r	.
8B~J	.	.	.
8b~	8r	4ryy	.
8r	8c#\	.	.
=13	=13	=13	=13
4EE 4BB	8c#L	4e 4g#	p
.	8BJ	.	.
*clefG2	*	*	*
4B 4e 4b	8a 8aaL	4ee	.
.	8g# 8gg#J	.	.
*clefF4	*	*	*
4BBB 4BB	8B 8g#L	4d#	.
.	8AJ	.	.
*clefG2	*	*	*
4A 4d# 4b	8g# 8gg#L	4dd#	.
.	8f# 8ff#J	.	.
*clefF4	*	*	*
*	*v	*v	*
!!LO:LB:g=original
=14	=14	=14
4EE 4BB	8G# 8e 8g#	.
.	8e 8ee	.
4BB 4G# 4e	8g# 8gg#L>	.
.	8d# 8dd#J	.
4AA# 4G# 4e	8g# 8gg#L	.
.	8c# 8cc#J	.
4r	8d# 8dd#L	.
.	8e 8eeJ	.
=15	=15	=15
*	*^	*
4BBB 4BB	4ryy	8g# 8gg#L	.
.	.	8B 8bJ	.
4G# 4e 4g#	8b 8ee 8bb	4ryy	.
.	8b 8B	.	.
4BB 4A 4d#	4dd#	8g# 8gg#L	.
.	.	8f# 8ff#J	.
4A 4d# 4f#	4ryy	8b 8ff# 8bb	.
.	.	8b 8B	.
=16	=16	=16	=16
4EE 4BB 4G#	4b	8f# 8ff#L	.
.	.	8e 8eeJ	.
8G# 8e 8g#	8b 8ee 8bb	4ryy	.
8A#	8r	.	.
8c#L	4r	4r	.
8BJ	.	.	.
8e	4r	4r	.
8FF## 8F##	.	.	.
!!LO:LB:g=original
=17	=17	=17	=17
*^	*	*	*
8AA 8AL	4ryy	4r	4r	.
8GG# 8G#J	.	.	.	.
8.E 8.eL	2.G#	2c#/ (>2cc#/	2.g#\	sf
16E 16eJk	.	.	.	.
8E 8eL	.	.	.	.
8D# 8d#	.	.	.	.
8C# 8c#	.	4e/ 4ee/)	.	.
8BB 8BJ	.	.	.	.
=18	=18	=18	=18	=18
8AA 8AL	4ryy	4r	4r	.
8GG# 8G#J	.	.	.	.
2.c#/	8.G# 8.g#L<	2e/ (>2ee/	2.cc#\	sf
.	16G# 16g#Jk	.	.	.
.	8G# 8g#L<	.	.	.
.	8F# 8f#	.	.	.
.	8E 8e	4g#/ 4gg#/)	.	.
.	8D# 8d#J	.	.	.
*	*	*v	*v	*
=19	=19	=19	=19
4ryy	8E 8eL	4r	.
.	8C# 8c#J	.	.
*v	*v	*	*
*clefG2	*	*
*^	*	*
8.e 8.eeL>	2.g#\	2cc# 2gg# (2ccc#	sf
16e 16eeJk	.	.	.
8e 8eeL>	.	.	.
8d# 8dd#	.	.	.
8c# 8cc#	.	4ee 4gg# 4eee)	.
8B 8bJ	.	.	.
*v	*v	*	*
=20	=20	=20
8.D# 8.d#L	4r	.
16B 16bJk	.	.
8B 8bL	2cc#^ 2gg#^ 2eee^	.
8A# 8a#J	.	.
8D# 8d#L	.	.
8B 8bJ	.	.
8A# 8a#	4cc#^ 4ff##^ 4ddd#^	.
*clefF4	*	*
8CC## 8C##	.	.
!!LO:LB:g=original
=21	=21	=21
*^	*^	*
8EE 8EL	4ryy	4r	4r	.
8DD# 8D#J	.	.	.	.
2.D#/	8.BB 8.BL<	2G#/ (>2g#/	2.d#\	sf
.	16BB 16BJk	.	.	.
.	8BB 8BL<	.	.	.
.	8AA# 8A#J	.	.	.
.	8GG# 8G#L	4B/ 4b/)	.	.
.	8FF# 8F#J	.	.	.
=22	=22	=22	=22	=22
8EE 8EL	4ryy	4r	4r	.
8DD# 8D#J	.	.	.	.
8.D# 8.d#L	2.G#	2B/ (>2b/	2.g#\	sf
16D# 16d#Jk	.	.	.	.
8D# 8d#L	.	.	.	.
8C# 8c#	.	.	.	.
8BB 8B	.	4d#/ 4dd#/)	.	.
8AA# 8A#J	.	.	.	.
*	*	*v	*v	*
=23	=23	=23	=23
8BB 8BL	4ryy	4r	.
8GG# 8G#J	.	.	.
2.d#/	8.B 8.bL<	2g# 2dd# (2gg#	sf
.	16B 16bJk	.	.
.	8B 8bL<	.	.
.	8A# 8a#	.	.
.	8G# 8g#	4b 4dd# 4ff# 4bb)	.
.	8F# 8f#J	.	.
*v	*v	*	*
=24	=24	=24
8.GG# 8.G#L	4r	.
16F# 16f#Jk	.	.
8F# 8f#L	2b 2ff# 2bb	.
8Dn 8dnJ	.	.
8CC# 8C#L	.	.
8GG# 8G#	.	.
8D 8d	4e# 4b 4ee#	.
8C# 8c#J	.	.
!!LO:LB:g=original
=25	=25	=25
*	*^	*
4FFF# 4FF#	8en (8eenL	4ryy	ff
.	8dn 8ddnJ	.	.
4Dn 4B 4dn	8.a 8.aaL	4dd	.
.	16a 16aaJk	.	.
4F# 4d 4f#	8a 8aaL	4dd	.
.	8g# 8gg#	.	.
4B 4d 4g# 4b	8f# 8ff#	4dd	.
.	8e# 8ee#J)	.	.
=26	=26	=26	=26
4FFF# 4FF#	4ryy	8r	.
.	.	8en (>8een	.
4Dn 4B	4f#	8e 8eeL	.
.	.	8dn 8ddnJ)	.
4FFF# 4FF#	4ryy	8r	.
.	.	8A (>8a	.
4D 4B	4d	8A 8aL	.
.	.	8G# 8g#J)	.
=27	=27	=27	=27
4FFF# 4FF#	8e (8eeL	4ryy	.
.	8dn 8ddnJ	.	.
4Dn 4F# 4B 4dn	8.cc# 8.ccc#L	4ff#	.
.	16cc# 16ccc#Jk	.	.
4F# 4B 4f#	8cc# 8ccc#L	4ff#	.
.	8b 8bb	.	.
4B 4f# 4b	8a 8aa	4ff#	.
.	8g# 8gg#J)	.	.
=28	=28	=28	=28
4FFF# 4FF#	8r	4ryy	.
.	8a (8aa	.	.
4Dn 4F# 4B# 4dn	8a 8aaL	4ddn	.
.	8f# 8ff#J)	.	.
4FFF# 4FF#	8r	4r	.
.	8a (>8aa	.	.
4D 4F# 4B# 4d	8a 8aaL	4dd	.
.	8f# 8ff#J)	.	.
*	*v	*v	*
!!LO:LB:g=original
=29	=29	=29
*	*^	*
4FFF# 4FF#	8r	4ryy	.
.	8a (8aa	.	.
4C# 4F# 4c#	8a 8aaL	4cc#	.
.	8f# 8ff#J)	.	.
8r	4f# 4ff#	4ryy	.
8AA 8A	.	.	.
8AA 8AL	4r	4r	.
8FF# 8F#J	.	.	.
=30	=30	=30	=30
4CC# 4C#	8r	4ryy	.
.	8a 8aa	.	.
4F# 4e	8a 8aaL	4ee	.
.	8f# 8ff#J	.	.
8r	4f# 4ff#	4ryy	.
8AA 8A	.	.	.
8AA 8AL	4r	4r	.
8FF# 8F#J	.	.	.
=31	=31	=31	=31
4BBB 4BB	8r	4ryy	.
.	8cc# 8ccc#	.	.
4F# 4A 4d# 4a	8cc# 8ccc#L	4dd#	.
.	8f# 8ff#J	.	.
8r	8f# 8ff#	4ryy	.
8a	8r	.	.
8aL	4r	4r	.
8d#J	.	.	.
=32	=32	=32	=32
*	*Xbrackettup	*	*
8d#	2re	12raa	.
.	.	12aaL	>
8r	.	.	.
.	.	12aaJ	.
4r	.	12aaL	.
.	.	12cc#	.
.	.	12cc#J	.
2BB 2A	4.d#	12cc#L	.
.	.	12ccn	.
.	.	12ccJ	.
.	.	12ccL	.
.	.	12bJ	.
.	8c#X	.	.
.	.	12r	.
!!LO:LB:g=original
=33	=33	=33	=33
*Xtuplet	*Xtuplet	*	*
!	!	!	!LO:DY:rj
4EE 4BB	4e/ 4g#/	12c#L<	mf
.	.	12c#	.
.	.	12BJ	.
*clefG2	*	*	*
4B 4e 4b	4ee/	12a^ 12aa^L<	.
.	.	12a 12aa	.
.	.	12g# 12gg#J	.
*clefF4	*	*	*
4BBB 4BB	4d#/ 4g#/	12BL<	.
.	.	12B	.
.	.	12AJ	.
*clefG2	*	*	*
4A 4d# 4b	4dd#/	12g#^ 12gg#^L<	.
.	.	12g# 12gg#	.
.	.	12f# 12ff#J	.
*clefF4	*	*	*
*	*v	*v	*
=34	=34	=34
4EE 4BB	12G# 12e 12g#	.
.	12e 12eeL	.
.	12e 12eeJ	.
4BB 4G# 4e	12g#~ 12gg#L>	.
.	12d# 12dd#	.
.	12d# 12dd#J	.
4AA# 4G# 4e	12g#~ 12gg#L	.
.	12c# 12cc#	.
.	12c# 12cc#J	.
4r	12c# 12cc#L	.
.	12d# 12dd#	.
.	12e 12eeJ	.
=35	=35	=35
*	*^	*
4BBB 4BB	4ryy	12g# 12gg#L	.
.	.	12A# 12a#	.
.	.	12B 12bJ	.
4G# 4e 4g#	12b 12ee 12bbL>	4ryy	.
.	12B# 12b#	.	.
.	12c# 12cc#J	.	.
4BB [<4An 4e	12g# 12gg#L	4cc#	.
.	12e# 12ee#	.	.
.	12f# 12ff#J	.	.
4A] 4d#	4ryy	12bn 12bbnL	.
.	.	12A#X 12a#X	.
.	.	12Bn 12bnJ	.
!!LO:LB:g=original
=36	=36	=36	=36
4EE 4BB 4G#	4b	12f# 12ff#L	.
.	.	12d# 12dd#	.
.	.	12e 12eeJ	.
12G# 12e 12g#	8b 8bb	8ee	.
12A#~L	.	.	.
.	8r	8r	.
12c#~J	.	.	.
12B~L	4r	4r	.
12e>~>	.	.	.
12b>~>J	.	.	.
4r	12g#	4ee	.
.	12c##L	.	.
.	12d#J	.	.
=37	=37	=37	=37
4GG# 4D#	12eL	4g# 4b	.
.	12e	.	.
.	12d#J	.	.
*clefG2	*	*	*
4B 4g# 4b	12ee^> 12eee^>L	4gg# 4bb	.
.	12ee 12eee	.	.
.	12dd# 12ddd#J	.	.
*clefF4	*	*	*
4DD# 4D#	12c#L	4f## 4cc#	.
.	12c#	.	.
.	12A#J	.	.
*clefG2	*	*	*
4A# 4f## 4cc#	12ee^> 12eee^>L	4ff## 4ccc#	.
.	12ee 12eee	.	.
.	12dd# 12ddd#J	.	.
*clefF4	*	*	*
*	*v	*v	*
=38	=38	=38
4EE 4E	12B 12d# 12g# 12b	.
.	12b 12bbL	.
.	12b 12bbJ	.
4B 4d# 4g#	12dd#~ 12ddd#L	.
.	12a# 12aa#	.
.	12a# 12aa#J	.
4EE# 4E#	12dd#~ 12ddd#L	.
.	12g# 12gg#	.
.	12g# 12gg#J	.
4B 4d# 4g#	12g# 12gg#L	.
.	12a# 12aa#	.
.	12b 12bbJ	.
!!LO:LB:g=original
=39	=39	=39
*	*^	*
4FF# 4F#	12dd# 12ddd#L	4ryy	.
.	12e# 12ee#	.	.
.	12f# 12ff#J	.	.
*clefG2	*	*	*
4d# 4b 4dd#	12ff# 12bb 12fff#L	4ryy	.
.	12f## 12ff##	.	.
.	12g# 12gg#J	.	.
*clefF4	*	*	*
4FF#/ 4En/ 4B/	12dd# 12ddd#L	4gg#	.
.	12b# 12bb#	.	.
.	12cc# 12ccc#J	.	.
*clefG2	*	*	*
4A# 4e 4f# 4cc#	12fff#L	4ff#	.
.	12e#X 12ee#X	.	.
.	12f# 12ff#J	.	.
*clefF4	*	*	*
=40	=40	=40	=40
4BBB 4FF# 4D#	12cc# 12ccc#L	4ff#	.
.	12a# 12aa#	.	.
.	12b 12bbJ	.	.
12F# 12d# 12b	4ryy	8ff#\ 8bb\ 8fff#\	.
12E#~L	.	.	.
.	.	8r	.
12G#~J	.	.	.
12F#~L	4r	4r	.
12B~	.	.	.
12f#>~>J	.	.	.
4r	12d#	4b	.
.	12A#L	.	.
.	12BJ	.	.
=41	=41	=41	=41
4GGG# 4GG#	4dn/ 4f#/	12c#L<	.
.	.	12B	.
.	.	12F#J	.
*clefG2	*	*	*
4G# 4dn 4f# 4ddn	4ff#/	12cc# 12ccc#L<	<
.	.	12cc# 12ccc#	.
.	.	12b 12bbJ	.
*clefF4	*	*	*
4CC# 4C#	4cc#/ 4ee#/	12a 12aaL<	.
.	.	12a 12aa	.
.	.	12g# 12gg#J	.
4B 4e#	12rff	12g#\	.
.	12d 12ddnL>	6ryy	.
.	12d 12ddJ	.	.
!!LO:LB:g=original
=42	=42	=42	=42
4A 4f#	4a	12dn^ 12ddn^L	.
.	.	12c# 12cc#	.
.	.	12c# 12cc#J	.
12r	8c#/ 8cc#/	4ryy	.
12DnL	.	.	.
.	8r	.	.
12DJ	.	.	.
12D^L	4r	4r	.
12C#	.	.	.
12C#J	.	.	.
8C#	12r	4ryy	.
.	12G#L<	.	.
8r	.	.	.
.	12AJ	.	.
=43	=43	=43	=43
4FFF# 4FF#	12BL	4cn 4e	.
.	12A	.	.
.	12EJ	.	.
4A 4e	12b 12bbL	4ee	f
.	12b 12bb	.	.
.	12a 12aaJ	.	.
4CCn 4Cn	12g# 12gg#L	4ee	>
.	12g# 12gg#	.	.
.	12f# 12ff#J	.	.
4F# 4e	12r	4ryy	.
.	12g# 12gg#L	.	.
.	12a 12aaJ	.	.
=44	=44	=44	=44
4BB 4A 4d#	12g# 12gg#L	4dd#	.
.	12f# 12ff#	.	.
.	12f# 12ff#J	.	.
12r	8f# 8ff#	4ryy	.
12c#L	.	.	.
.	8r	.	.
12c#J	.	.	.
12c#L	4r	4r	.
12B	.	.	.
12BJ	.	.	.
8B	12r	4ryy	.
.	12A#L<	.	p
8r	.	.	.
.	12BJ	.	.
!!LO:LB:g=original
=45	=45	=45	=45
4EE 4BB	4e/ 4g#/	12c#L<	.
.	.	12c#	.
.	.	12BJ	.
*clefG2	*	*	*
4B 4e 4b	4ee/	12a^ 12aa^L<	.
.	.	12a 12aa	.
.	.	12g# 12gg#J	.
*clefF4	*	*	*
4BBB 4BB	4d#/ 4g#/	12BL<	.
.	.	12B	.
.	.	12AJ	.
*clefG2	*	*	*
4A 4d# 4b	4dd#/	12g#^ 12gg#^L<	.
.	.	12g# 12gg#	.
.	.	12f# 12ff#J	.
*clefF4	*	*	*
*	*v	*v	*
=46	=46	=46
4EE 4BB	12G# 12e 12g#	.
.	12e 12eeL	.
.	12e 12eeJ	.
4BB 4G# 4e	12g# 12gg#L>	.
.	12d# 12dd#	.
.	12d# 12dd#J	.
4AA# 4G# 4e	12g# 12gg#L	.
.	12c# 12cc#	.
.	12c# 12cc#J	.
4r	12c# 12cc#L	.
.	12d# 12dd#	.
.	12e 12eeJ	.
=47	=47	=47
*	*^	*
4BBB 4BB	12g# 12gg#L	4ryy	.
.	12A# 12a#	.	.
.	12B 12bJ	.	.
4G# 4e 4g#	12b 12ee 12bbL	4ryy	.
.	12B# 12b#	.	.
.	12c# 12cc#J	.	.
4BB 4E# 4c#	4cc#	12an 12aanL	.
.	.	12g# 12gg#	.
.	.	12c# 12cc#J	.
4G# 4c# 4e#	12cc# 12gg# 12ccc#L	4ryy	.
.	12B# 12b#	.	.
.	12c# 12cc#J	.	.
!!LO:LB:g=original
=48	=48	=48	=48
4BB 4F# 4c#	4cc#/	12f#~ 12ff#L<	.
.	.	12g#~ 12gg#	.
.	.	12a~ 12aaJ	.
4A 4f# 4a	4ff#/	12dd#~ 12ddd#L<	.
.	.	12cc# 12ccc#	.
.	.	12a 12aaJ	.
4BB 4A 4d#	12g# 12gg#L	4dd#	.
.	12e# 12ee#	.	.
.	12f# 12ff#J	.	.
4A 4d# 4a	12r	4ryy	.
.	12A#L>	.	.
.	12BJ	.	.
=49	=49	=49	=49
8EEL	12c#L	4e 4g#	.
.	12c#	.	.
8BBJ	.	.	.
.	12BJ	.	.
8EL	12f#L	4g# 4b	.
.	12f#	.	.
8BJ	.	.	.
.	12eJ	.	.
8eL	12aL	4b	.
.	12a	.	.
[<8dnJ	.	.	.
.	12g#J	.	.
4E 4d] 4g#	12cc# 12ccc#L	4gg#	.
.	12cc# 12ccc#	.	.
.	12b 12bbJ	.	.
=50	=50	=50	=50
4AAA 4AA	4e/ 4f#/	12c#L<	.
.	.	12c#	.
.	.	12F#J	.
4F# 4c# 4e	4ee/	12b 12bbL<	.
.	.	12b 12bb	.
.	.	12a 12aaJ	.
4BBB 4BB	4d#/ 4g#/	12BL<	.
.	.	12B	.
.	.	12AJ	.
4A 4d# 4b	4dd#/	12g# 12gg#L<	.
.	.	12g# 12gg#	.
.	.	12f# 12ff#J	.
!!LO:LB:g=original
=51	=51	=51	=51
8EEL	12c#L	4e 4g#	.
.	12c#	.	.
8BBJ	.	.	.
.	12BJ	.	.
8EL	12f#L	4g# 4b	.
.	12f#	.	.
8BJ	.	.	.
.	12eJ	.	.
8eL	12aL	4b 4ee	.
.	12a	.	.
[8dnJ	.	.	.
.	12g#J	.	.
4E 4d] 4g#	12cc# 12ccc#L	4gg#	.
.	12cc# 12ccc#	.	.
.	12b 12bbJ	.	.
=52	=52	=52	=52
4AAA 4AA	4e 4f#	12c#L	.
.	.	12c#	.
.	.	12F#J	.
4F# 4c# 4e	4ee/	12b 12bbL<	.
.	.	12b 12bb	.
.	.	12a 12aaJ	.
4BBB 4BB	4d#/ 4g#/	12BL<	.
.	.	12B	.
.	.	12AJ	.
4A 4d# 4b	4dd#/	12g# 12gg#L<	.
.	.	12g# 12gg#	.
.	.	12f# 12ff#J	.
*	*v	*v	*
=53	=53	=53
4EE 4BB	12G# 12e 12g#	.
.	12e 12eeL	.
.	12e 12eeJ	.
4BB 4G# 4e	12g# 12gg#L>	.
.	12d# 12dd#	.
.	12d# 12dd#J	.
4AA# 4G# 4e	12g# 12gg#L	.
.	12c# 12cc#	.
.	12c# 12cc#J	.
4r	12c# 12cc#L	.
.	12d# 12dd#	.
.	12e 12eeJ	.
!!LO:LB:g=original
=54	=54	=54
4EE 4BB	12g# 12gg#L>	.
.	12e 12ee	.
.	12e 12eeJ	.
4BB 4G# 4e	12g# 12gg#L>	.
.	12d# 12dd#	.
.	12d# 12dd#J	.
4AA# 4G# 4e	12g# 12gg#L	.
.	12c# 12cc#	.
.	12c# 12cc#J	.
4r	12c# 12cc#L	.
.	12d# 12dd#	.
.	12e 12eeJ	.
=55	=55	=55
*	*^	*
8EEL	12c#L	4e 4g#	.
.	12c#	.	.
8BB	.	.	.
.	12BJ	.	.
8E	12f#L	4g#	.
.	12f#	.	.
8BJ	.	.	.
.	12eJ	.	.
8eL	12aL	4b	.
.	12a	.	.
8B	.	.	.
.	12g#J	.	.
8E	12cc#L	4ee 4gg#	.
.	12cc#	.	.
8BJ	.	.	.
.	12bJ	.	.
*clefG2	*	*	*
=56	=56	=56	=56
*	*8va	*	*
8eL	12ff#L	4gg# 4bb
.	.	12ff#	.
.	8b	.	.
.	.	12eeJ	.
.	8ee	12aaL	4bb
.	.	12aa	.
.	8bJ	.	.
.	.	12gg#J	.
.	8eL	12ccc#L	4eee 4ggg#
.	.	12ccc#	.
.	8b	.	.
.	.	12bbJ	.
.	8ee	12fff#L	4ggg# 4bbb
.	.	12fff#	.
.	[8bbJ	.	.
.	.	12eeeJ	.
.	*	*v	*v	*
=57	=57	=57
4ee 4bb]	4ggg# 4eeee	.
*	*X8va	*
4r	4r
.	*clefF4	*	*
2E 2B 2e	2g# 2ee 2gg#
.	=58	=58	=58
1EE 1BB 1E	1G# 1B 1e
.	==	==	==
*-	*-	*-
!!!system-decoration: {(*)}
!!!RDF**kern: > = above
!!!RDF**kern: < = below
!!!RDF**dynam: > = dim.
!!!PPP: A.N. Skryabin: Polnoe sobranie sochinenii dlia fortepiano, vol.1 Moscow: Muzgiz, 1947. Plate M. 18650 Г.
!!!URL-pdf: https://s9.imslp.org/files/imglnks/usimg/7/75/IMSLP517076-PMLP7375-Scriabin_-_Etude_Op.8_No.1_(etc).pdf#page=14 Muzgiz, 1947. Plate M. 18650
!!!ENC: Craig Stuart Sapp
!!!END: 2004/09/04
!!!EED: Craig Stuart Sapp
!!!EEV: 2023/02/20
